Logos/PowerPlatform.svg

<?xml version="1.0" encoding="UTF-8" standalone="no"?>
<svg id="2815af4e-93c5-4f31-9144-5eb27f2cd0a8" width="96" height="96" viewBox="0 0 96 96" fill="none" xmlns="http://www.w3.org/2000/svg">
    <defs>
        <filter id="7c7629eb-5cb3-4fa6-ba15-011bd7c38841">
            <feFlood flood-opacity="0" result="BackgroundImageFix" />
            <feBlend mode="normal" in="SourceGraphic" in2="BackgroundImageFix" result="shape" />
            <feGaussianBlur stdDeviation="0.4" result="effect1_foregroundBlur_84_430" />
        </filter>
        <filter id="7c7639eb-5cb3-4fa6-ba15-011bd7c38841">
            <feFlood flood-opacity="0" result="BackgroundImageFix" />
            <feBlend mode="normal" in="SourceGraphic" in2="BackgroundImageFix" result="shape" />
            <feGaussianBlur stdDeviation="4" result="effect1_foregroundBlur_84_430" />
        </filter>
        <linearGradient id="7c7649eb-5cb3-4fa6-ba15-011bd7c38841" x1="9" y1="58" x2="19" y2="96"
            gradientUnits="userSpaceOnUse">
            <stop stop-color="#159455" />
            <stop offset="1" stop-color="#3FBDA9" />
        </linearGradient>
        <linearGradient id="7c7659eb-5cb3-4fa6-ba15-011bd7c38841" x1="24.8987" y1="5.52273" x2="82.9153"
            y2="31.3167" gradientUnits="userSpaceOnUse">
            <stop stop-color="#23A794" />
            <stop offset="0.568447" stop-color="#007A84" />
            <stop offset="1" stop-color="#005158" />
        </linearGradient>
        <linearGradient id="7c7669eb-5cb3-4fa6-ba15-011bd7c38841" x1="74" y1="40" x2="63.5" y2="12.5"
            gradientUnits="userSpaceOnUse">
            <stop stop-color="#004A8B" />
            <stop offset="0.405563" stop-color="#105DA8" stop-opacity="0.500243" />
            <stop offset="1" stop-color="#2170C6" stop-opacity="0" />
        </linearGradient>
        <linearGradient id="7c7679eb-5cb3-4fa6-ba15-011bd7c38841" x1="17" y1="36" x2="69.5" y2="62"
            gradientUnits="userSpaceOnUse">
            <stop stop-color="#7FD9A2" />
            <stop offset="0.196063" stop-color="#47BF79" />
            <stop offset="0.713946" stop-color="#009280" />
            <stop offset="1" stop-color="#007A84" />
        </linearGradient>
        <linearGradient id="7c7689eb-5cb3-4fa6-ba15-011bd7c38841" x1="16.5" y1="37" x2="28.5" y2="43"
            gradientUnits="userSpaceOnUse">
            <stop stop-color="#A8E47C" stop-opacity="0.86" />
            <stop offset="0.367474" stop-color="#87D152" stop-opacity="0.2" />
            <stop offset="1" stop-color="#58BE5A" stop-opacity="0" />
        </linearGradient>
    </defs>
    <mask id="7c7699eb-5cb3-4fa6-ba15-011bd7c38841" maskUnits="userSpaceOnUse" x="3" y="2"
        width="88" height="92">
        <path
            d="M36.2108 2H75.7297C86.7897 2 94.0145 13.5445 89.2654 23.4644L90.0002 22L76.2654 49.4696C76.2262 49.5513 76.1862 49.6329 76.1455 49.7144L74.0002 54L76.1461 49.7082C73.6052 54.79 68.4112 58 62.7297 58H39.0002L22.1995 91.6014C20.8813 94.2378 17.1191 94.2378 15.8009 91.6014L4.06542 68.1305C2.99573 65.9911 3.13282 63.6781 4.09866 61.803L17.0229 35.9545C18.2347 33.5309 20.7118 32 23.4215 32H72.9425C70.3205 29.5491 66.7837 28 62.7321 28H26.7877C24.1287 28 22.3993 25.2017 23.5884 22.8234L33.0115 3.97728C33.6174 2.76547 34.8559 2 36.2108 2Z"
            fill="white" />
    </mask>
    <g mask="url(#7c7699eb-5cb3-4fa6-ba15-011bd7c38841)">
        <path
            d="M10.3262 58H39L22.1993 91.6014C20.8811 94.2378 17.1189 94.2378 15.8007 91.6014L4.06525 68.1305C1.73809 63.4762 5.12256 58 10.3262 58Z"
            fill="url(#7c7649eb-5cb3-4fa6-ba15-011bd7c38841)" />
        <path
            d="M36.2106 2H75.7295C86.8802 2 94.1327 13.7347 89.1459 23.7082L76.2652 49.4696C76.226 49.5513 76.1861 49.6329 76.1453 49.7144L74 54L76.2652 49.4696C81.0192 39.5494 73.7946 28 62.732 28H26.7876C24.1286 28 22.3991 25.2017 23.5883 22.8234L33.0113 3.97728C33.6172 2.76547 34.8557 2 36.2106 2Z"
            fill="url(#7c7659eb-5cb3-4fa6-ba15-011bd7c38841)" />
        <path
            d="M36.2106 2H75.7295C86.8802 2 94.1327 13.7347 89.1459 23.7082L76.2366 49.5268C76.2062 49.5896 76.1753 49.6523 76.144 49.7149L75 52L76.2366 49.5268C81.0459 39.5939 73.8149 28 62.7309 28H26.7876C24.1286 28 22.3991 25.2017 23.5883 22.8234L33.0113 3.97728C33.6172 2.76547 34.8557 2 36.2106 2Z"
            fill="url(#7c7669eb-5cb3-4fa6-ba15-011bd7c38841)" />
        <g filter="url(#7c7629eb-5cb3-4fa6-ba15-011bd7c38841)">
            <path
                d="M62.7295 58.4H10.4213C7.71219 58.4 5.23554 59.9303 4.02347 62.3531L17.0227 36.3546C18.2345 33.931 20.7116 32.4 23.4213 32.4H75.7264C81.4004 32.4 86.5887 29.1986 89.1333 24.1273L90 22.4L76.1459 50.1082C73.605 55.19 68.4111 58.4 62.7295 58.4Z"
                fill="black" fill-opacity="0.24" />
        </g>
        <g filter="url(#7c7639eb-5cb3-4fa6-ba15-011bd7c38841)">
            <path
                d="M62.7295 60H10.4213C7.71219 60 5.23554 61.5303 4.02347 63.9531L17.0227 37.9545C18.2345 35.5309 20.7116 34 23.4213 34H75.7264C81.4004 34 86.5887 30.7985 89.1333 25.7272L90 24L76.1459 51.7082C73.605 56.79 68.4111 60 62.7295 60Z"
                fill="black" fill-opacity="0.32" />
        </g>
        <path
            d="M62.7295 58H10.4213C7.71219 58 5.23554 59.5303 4.02347 61.9531L17.0227 35.9545C18.2345 33.5309 20.7116 32 23.4213 32H75.7264C81.4004 32 86.5887 28.7985 89.1333 23.7272L90 22L76.1459 49.7082C73.605 54.79 68.4111 58 62.7295 58Z"
            fill="url(#7c7679eb-5cb3-4fa6-ba15-011bd7c38841)" />
        <path opacity="0.7"
            d="M62.7004 58H10.4598C7.75011 58 5.27299 59.5309 4.06119 61.9546L17.0612 35.9545C18.273 33.5309 20.7501 32 23.4598 32H76C81.4957 32 86.5234 28.9061 89 24L76.1107 49.7203C73.5675 54.7954 68.3771 58 62.7004 58Z"
            fill="url(#7c7689eb-5cb3-4fa6-ba15-011bd7c38841)" />
    </g>
</svg>

<svg xmlns="http://www.w3.org/2000/svg" width="96" height="96" fill="none">
    <defs>
        <linearGradient id="c9e814a8-1a0f-4fa5-923c-c46a9918e350" x1="9" x2="19" y1="58" y2="96" gradientUnits="userSpaceOnUse">
            <stop stop-color="#159455" />
            <stop offset="1" stop-color="#3FBDA9" />
        </linearGradient>
        <linearGradient id="d9ece01d-6d1e-45fc-895b-f6a8a99d9416" x1="24.899" x2="82.915" y1="5.523" y2="31.317"
            gradientUnits="userSpaceOnUse">
            <stop stop-color="#23A794" />
            <stop offset=".568" stop-color="#007A84" />
            <stop offset="1" stop-color="#005158" />
        </linearGradient>
        <linearGradient id="a8fe6255-91fe-41e6-86c3-bb2101e7c861" x1="74" x2="63.5" y1="40" y2="12.5" gradientUnits="userSpaceOnUse">
            <stop stop-color="#004A8B" />
            <stop offset=".406" stop-color="#105DA8" stop-opacity=".5" />
            <stop offset="1" stop-color="#2170C6" stop-opacity="0" />
        </linearGradient>
        <linearGradient id="bdea93c1-2025-4497-80ce-b8f8ce7b0c2f" x1="17" x2="69.5" y1="36" y2="62" gradientUnits="userSpaceOnUse">
            <stop stop-color="#7FD9A2" />
            <stop offset=".196" stop-color="#47BF79" />
            <stop offset=".714" stop-color="#009280" />
            <stop offset="1" stop-color="#007A84" />
        </linearGradient>
        <linearGradient id="50cf2176-675b-4f75-a05a-8f27a3bf7389" x1="16.5" x2="28.5" y1="37" y2="43" gradientUnits="userSpaceOnUse">
            <stop stop-color="#A8E47C" stop-opacity=".86" />
            <stop offset=".367" stop-color="#87D152" stop-opacity=".2" />
            <stop offset="1" stop-color="#58BE5A" stop-opacity="0" />
        </linearGradient>
        <filter id="5e9c0a62-6f1d-44fa-a6ff-a63bb8fe6663">
            <feFlood flood-opacity="0" result="BackgroundImageFix" />
            <feBlend in="SourceGraphic" in2="BackgroundImageFix" result="shape" />
            <feGaussianBlur result="effect1_foregroundBlur_84_430" stdDeviation=".4" />
        </filter>
        <filter id="d693f61d-6d2a-473a-b926-4a4fd138bc1c">
            <feFlood flood-opacity="0" result="BackgroundImageFix" />
            <feBlend in="SourceGraphic" in2="BackgroundImageFix" result="shape" />
            <feGaussianBlur result="effect1_foregroundBlur_84_430" stdDeviation="4" />
        </filter>
    </defs>
    <mask id="44f62a1e-86ba-4d91-a661-70540556a5b6" width="88" height="92" x="3" y="2" maskUnits="userSpaceOnUse">
        <path fill="#fff"
            d="M36.21 2h39.52c11.06 0 18.284 11.544 13.535 21.464L90 22 76.265 49.47c-.039.081-.079.163-.12.244L74 54l2.146-4.292A15 15 0 0 1 62.73 58H39L22.2 91.601c-1.319 2.637-5.08 2.637-6.4 0L4.066 68.131a6.929 6.929 0 0 1 .034-6.328l12.924-25.848A7.154 7.154 0 0 1 23.422 32h49.52c-2.621-2.45-6.158-4-10.21-4H26.788c-2.66 0-4.389-2.798-3.2-5.177l9.423-18.846A3.577 3.577 0 0 1 36.212 2Z" />
    </mask>
    <g mask="url(#44f62a1e-86ba-4d91-a661-70540556a5b6)">
        <path fill="url(#c9e814a8-1a0f-4fa5-923c-c46a9918e350)"
            d="M10.326 58H39L22.2 91.601c-1.319 2.637-5.081 2.637-6.4 0L4.066 68.131C1.738 63.475 5.123 58 10.326 58Z" />
        <path fill="url(#d9ece01d-6d1e-45fc-895b-f6a8a99d9416)"
            d="M36.21 2h39.52c11.15 0 18.403 11.735 13.416 21.708L76.266 49.47l-.12.244L74 54l2.265-4.53C81.02 39.55 73.795 28 62.732 28H26.788c-2.66 0-4.389-2.798-3.2-5.177l9.423-18.846A3.577 3.577 0 0 1 36.211 2Z" />
        <path fill="url(#a8fe6255-91fe-41e6-86c3-bb2101e7c861)"
            d="M36.21 2h39.52c11.15 0 18.403 11.735 13.416 21.708l-12.91 25.819c-.03.063-.06.125-.092.188L75 52l1.237-2.473C81.046 39.594 73.815 28 62.73 28H26.788c-2.66 0-4.389-2.798-3.2-5.177l9.423-18.846A3.577 3.577 0 0 1 36.211 2Z" />
        <g filter="url(#5e9c0a62-6f1d-44fa-a6ff-a63bb8fe6663)">
            <path fill="#000" fill-opacity=".24"
                d="M62.73 58.4H10.42a7.154 7.154 0 0 0-6.398 3.953l13-25.998A7.154 7.154 0 0 1 23.42 32.4h52.305a15 15 0 0 0 13.407-8.273L90 22.4 76.146 50.108A15 15 0 0 1 62.73 58.4Z" />
        </g>
        <g filter="url(#d693f61d-6d2a-473a-b926-4a4fd138bc1c)">
            <path fill="#000" fill-opacity=".32"
                d="M62.73 60H10.42a7.154 7.154 0 0 0-6.398 3.953l13-25.998A7.154 7.154 0 0 1 23.42 34h52.305a15 15 0 0 0 13.407-8.273L90 24 76.146 51.708A15 15 0 0 1 62.73 60Z" />
        </g>
        <path fill="url(#bdea93c1-2025-4497-80ce-b8f8ce7b0c2f)"
            d="M62.73 58H10.42a7.154 7.154 0 0 0-6.398 3.953l13-25.998A7.154 7.154 0 0 1 23.42 32h52.305a15 15 0 0 0 13.407-8.273L90 22 76.146 49.708A15 15 0 0 1 62.73 58Z" />
        <path fill="url(#50cf2176-675b-4f75-a05a-8f27a3bf7389)"
            d="M62.7 58H10.46a7.154 7.154 0 0 0-6.399 3.955l13-26A7.154 7.154 0 0 1 23.46 32H76a14.562 14.562 0 0 0 13-8L76.11 49.72A15 15 0 0 1 62.7 58Z"
            opacity=".7" />
    </g>
</svg>
